icons/elixir-dark.svg

<svg width="256" height="256" viewBox="0 0 256 256" fill="none" xmlns="http://www.w3.org/2000/svg">
<rect width="256" height="256" rx="60" fill="#282828"/>
<path fill-rule="evenodd" clip-rule="evenodd" d="M133.418 28.5034C118.887 33.6538 104.861 48.6865 91.338 73.6015C71.0538 110.974 44.8557 164.081 80.9307 206.129C97.62 225.581 125.176 237.062 161.34 218.879C190.391 204.272 198.471 162.353 188.041 142.654C166.526 102.02 144.698 91.9975 138.853 66.7979C134.956 49.9982 133.145 37.2334 133.418 28.5034V28.5034Z" fill="url(#paint0_linear_306_52)"/>
<path fill-rule="evenodd" clip-rule="evenodd" d="M133.418 28C118.814 33.2035 104.787 48.2362 91.3379 73.0981C71.1642 110.391 44.8555 163.578 80.9305 205.625C97.6199 225.078 124.822 231.364 139.915 219.827C149.755 212.306 156.447 205.137 160.303 190.031C164.596 173.211 161.302 150.567 159.045 140.164C156.189 127.001 155.254 112.553 156.24 96.8214C155.893 96.3979 155.633 96.081 155.461 95.8706C147.603 86.254 141.54 77.8776 138.853 66.2945C134.956 49.4948 133.145 36.7299 133.418 28V28Z" fill="url(#paint1_linear_306_52)"/>
<path fill-rule="evenodd" clip-rule="evenodd" d="M121.326 34.543C107.723 45.2935 97.6093 63.3258 90.9842 88.6398C81.0466 126.611 79.9698 161.626 83.4746 181.993C90.2689 221.475 125.493 236.462 161.623 218.085C183.858 206.775 193.119 182.499 192.628 156.148C192.12 128.864 139.395 97.9413 130.057 75.1707C123.832 59.9903 120.922 46.4477 121.326 34.543V34.543Z" fill="url(#paint2_linear_306_52)"/>
<path fill-rule="evenodd" clip-rule="evenodd" d="M155.811 105.732C172.124 126.654 175.68 141.218 166.479 149.424C152.677 161.734 118.924 169.765 97.927 154.875C83.9287 144.948 78.6323 123.652 82.0377 90.9883C76.2592 103.056 71.3734 115.281 67.3803 127.663C63.3873 140.045 62.2212 153.002 63.8822 166.535C68.8864 176.659 81.0535 183.42 100.383 186.82C129.378 191.918 156.821 189.399 175.236 180.116C187.512 173.928 193.318 167.767 192.655 161.635C193.098 152.579 190.306 143.959 184.278 135.773C178.25 127.588 168.761 117.574 155.811 105.732V105.732Z" fill="url(#paint3_linear_306_52)"/>
<path fill-rule="evenodd" clip-rule="evenodd" d="M92.0601 84.8403C91.9237 99.9501 95.8089 114.314 103.715 127.931C115.575 148.358 129.419 168.541 150.135 185.272C163.946 196.425 174.981 200.029 183.241 196.082C176.457 208.224 169.243 214.174 161.6 213.931C150.135 213.567 136.156 208.557 113.758 181.64C98.8252 163.696 88.6099 146.722 83.1118 130.718C83.9837 124.369 84.9082 118.045 85.8854 111.747C86.8626 105.448 88.9209 96.4794 92.0601 84.8403V84.8403Z" fill="url(#paint4_linear_306_52)"/>
<path fill-rule="evenodd" clip-rule="evenodd" d="M127.098 105.576C128.365 117.885 133.155 137.575 127.098 150.684C121.041 163.794 93.0644 187.476 100.787 208.339C108.51 229.201 127.33 224.517 139.135 214.903C150.94 205.288 157.259 189.655 158.66 178.661C160.061 167.666 155.309 146.512 153.763 128.111C152.733 115.844 153.432 105.326 155.861 96.5575L152.243 92.0054L130.951 85.7012C127.537 90.7453 126.253 97.3703 127.098 105.576V105.576Z" fill="url(#paint5_linear_306_52)"/>
<path fill-rule="evenodd" clip-rule="evenodd" d="M134.698 44.6094C127.807 47.5213 121.278 53.2912 115.111 61.9192C105.86 74.861 101.148 82.6189 104.636 108.273C106.961 125.376 108.625 141.11 109.628 155.475L139.45 68.8285C138.354 64.4134 137.442 60.4261 136.715 56.8664C135.987 53.3068 135.315 49.2211 134.698 44.6094V44.6094Z" fill="url(#paint6_linear_306_52)"/>
<path fill-rule="evenodd" clip-rule="evenodd" d="M139.393 68.6553C131.823 73.074 125.957 82.1269 121.795 95.8139C117.633 109.501 113.826 128.635 110.372 153.216C114.978 137.582 118.033 126.258 119.538 119.244C121.795 108.724 122.566 93.8468 128.558 83.7467C132.553 77.0133 136.165 71.9828 139.393 68.6553V68.6553Z" fill="#330A4C" fill-opacity="0.316321"/>
<path fill-rule="evenodd" clip-rule="evenodd" d="M104.34 215.306C116.798 217.086 123.313 218.668 123.883 220.053C124.739 222.131 122.306 224.031 115.391 222.754C110.781 221.903 107.097 219.42 104.34 215.306Z" fill="white"/>
<path fill-rule="evenodd" clip-rule="evenodd" d="M110.599 44.6094C103.747 52.7956 97.8087 61.4742 92.7857 70.6454C87.7626 79.8165 84.1735 86.6585 82.0183 91.1714C81.3504 94.5373 81.0243 99.5038 81.0402 106.071C81.0562 112.638 81.6242 119.94 82.7443 127.976C83.725 112.239 86.7271 96.9632 91.7507 82.1492C96.7744 67.3351 103.057 54.8218 110.599 44.6094V44.6094Z" fill="#EDEDED" fill-opacity="0.603261"/>
<defs>
<linearGradient id="paint0_linear_306_52" x1="130.619" y1="43.2442" x2="123.681" y2="227.849" gradientUnits="userSpaceOnUse">
<stop stop-color="#D9D8DC"/>
<stop offset="1" stop-color="white" stop-opacity="0.385275"/>
</linearGradient>
<linearGradient id="paint1_linear_306_52" x1="133.755" y1="43.1976" x2="61.2462" y2="202.116" gradientUnits="userSpaceOnUse">
<stop stop-color="#8D67AF" stop-opacity="0.671932"/>
<stop offset="1" stop-color="#9F8DAF"/>
</linearGradient>
<linearGradient id="paint2_linear_306_52" x1="141.849" y1="94.6868" x2="141.849" y2="222.482" gradientUnits="userSpaceOnUse">
<stop stop-color="#26053D" stop-opacity="0.761634"/>
<stop offset="1" stop-color="#B7B4B4" stop-opacity="0.277683"/>
</linearGradient>
<linearGradient id="paint3_linear_306_52" x1="76.278" y1="103.33" x2="108.812" y2="189.51" gradientUnits="userSpaceOnUse">
<stop stop-color="#91739F" stop-opacity="0.45955"/>
<stop offset="1" stop-color="#32054F" stop-opacity="0.539912"/>
</linearGradient>
<linearGradient id="paint4_linear_306_52" x1="163.238" y1="209.304" x2="73.7728" y2="135.173" gradientUnits="userSpaceOnUse">
<stop stop-color="#463D49" stop-opacity="0.331182"/>
<stop offset="1" stop-color="#340A50" stop-opacity="0.821388"/>
</linearGradient>
<linearGradient id="paint5_linear_306_52" x1="144.85" y1="95.8913" x2="81.7508" y2="191.882" gradientUnits="userSpaceOnUse">
<stop stop-color="#715383" stop-opacity="0.145239"/>
<stop offset="1" stop-color="#F4F4F4" stop-opacity="0.233639"/>
</linearGradient>
<linearGradient id="paint6_linear_306_52" x1="150.884" y1="125.17" x2="106.199" y2="122.442" gradientUnits="userSpaceOnUse">
<stop stop-color="#A5A1A8" stop-opacity="0.356091"/>
<stop offset="1" stop-color="#370C50" stop-opacity="0.581975"/>
</linearGradient>
</defs>
</svg>

<svg xmlns="http://www.w3.org/2000/svg" width="256" height="256" fill="none"><rect width="256" height="256" fill="#282828" rx="60"/><path fill="url(#paint0_linear_306_52)" fill-rule="evenodd" d="M133.418 28.503q-21.796 7.726-42.08 45.099c-20.284 37.372-46.482 90.479-10.407 132.527 16.689 19.452 44.245 30.933 80.409 12.75 29.051-14.607 37.131-56.526 26.701-76.225-21.515-40.634-43.343-50.656-49.188-75.856q-5.845-25.2-5.435-38.295" clip-rule="evenodd"/><path fill="url(#paint1_linear_306_52)" fill-rule="evenodd" d="M133.418 28q-21.906 7.805-42.08 45.098c-20.174 37.293-46.482 90.48-10.407 132.527 16.689 19.453 43.891 25.739 58.984 14.202 9.84-7.521 16.532-14.69 20.388-29.796 4.293-16.82.999-39.464-1.258-49.867q-4.284-19.745-2.805-43.343l-.779-.95c-7.858-9.617-13.921-17.993-16.608-29.576q-5.845-25.2-5.435-38.295" clip-rule="evenodd"/><path fill="url(#paint2_linear_306_52)" fill-rule="evenodd" d="M121.326 34.543Q100.922 50.668 90.984 88.64c-9.937 37.971-11.014 72.986-7.51 93.353 6.795 39.482 42.019 54.469 78.149 36.092 22.235-11.31 31.496-35.586 31.005-61.937-.508-27.284-53.233-58.207-62.571-80.977q-9.337-22.77-8.731-40.628" clip-rule="evenodd"/><path fill="url(#paint3_linear_306_52)" fill-rule="evenodd" d="M155.811 105.732q24.47 31.383 10.668 43.692c-13.802 12.31-47.555 20.341-68.552 5.451q-20.997-14.89-15.89-63.887-8.667 18.102-14.657 36.675t-3.498 38.872q7.507 15.186 36.501 20.285c28.995 5.098 56.438 2.579 74.853-6.704q18.414-9.282 17.419-18.481.665-13.583-8.377-25.862t-28.467-30.041" clip-rule="evenodd"/><path fill="url(#paint4_linear_306_52)" fill-rule="evenodd" d="M92.06 84.84q-.204 22.665 11.655 43.091c11.86 20.427 25.704 40.61 46.42 57.341q20.716 16.73 33.106 10.81-10.176 18.213-21.641 17.849c-11.465-.364-25.444-5.374-47.842-32.291q-22.4-26.916-30.646-50.922 1.308-9.524 2.773-18.971 1.467-9.449 6.175-26.907" clip-rule="evenodd"/><path fill="url(#paint5_linear_306_52)" fill-rule="evenodd" d="M127.098 105.576c1.267 12.309 6.057 31.999 0 45.108-6.057 13.11-34.034 36.792-26.311 57.655 7.723 20.862 26.543 16.178 38.348 6.564s18.124-25.248 19.525-36.242c1.401-10.995-3.351-32.149-4.897-50.55q-1.545-18.4 2.098-31.553l-3.618-4.553-21.292-6.304q-5.12 7.567-3.853 19.875" clip-rule="evenodd"/><path fill="url(#paint6_linear_306_52)" fill-rule="evenodd" d="M134.698 44.61q-10.336 4.367-19.587 17.31c-9.251 12.941-13.963 20.699-10.475 46.353q3.488 25.655 4.992 47.202l29.822-86.646q-1.644-6.623-2.735-11.963-1.092-5.34-2.017-12.257" clip-rule="evenodd"/><path fill="#330A4C" fill-opacity=".316" fill-rule="evenodd" d="M139.393 68.655q-11.355 6.628-17.598 27.159t-11.423 57.402q6.909-23.451 9.166-33.972c2.257-10.52 3.028-25.397 9.02-35.497q5.993-10.1 10.835-15.092" clip-rule="evenodd"/><path fill="#fff" fill-rule="evenodd" d="M104.34 215.306q18.688 2.67 19.543 4.747c.856 2.078-1.577 3.978-8.492 2.701q-6.915-1.277-11.051-7.448" clip-rule="evenodd"/><path fill="#EDEDED" fill-opacity=".603" fill-rule="evenodd" d="M110.599 44.61q-10.278 12.279-17.813 26.035-7.534 13.758-10.768 20.526-1.002 5.05-.978 14.9t1.704 21.905q1.471-23.606 9.007-45.827t18.848-37.54" clip-rule="evenodd"/><defs><linearGradient id="paint0_linear_306_52" x1="130.619" x2="123.681" y1="43.244" y2="227.849" gradientUnits="userSpaceOnUse"><stop stop-color="#D9D8DC"/><stop offset="1" stop-color="#fff" stop-opacity=".385"/></linearGradient><linearGradient id="paint1_linear_306_52" x1="133.755" x2="61.246" y1="43.198" y2="202.116" gradientUnits="userSpaceOnUse"><stop stop-color="#8D67AF" stop-opacity=".672"/><stop offset="1" stop-color="#9F8DAF"/></linearGradient><linearGradient id="paint2_linear_306_52" x1="141.849" x2="141.849" y1="94.687" y2="222.482" gradientUnits="userSpaceOnUse"><stop stop-color="#26053D" stop-opacity=".762"/><stop offset="1" stop-color="#B7B4B4" stop-opacity=".278"/></linearGradient><linearGradient id="paint3_linear_306_52" x1="76.278" x2="108.812" y1="103.33" y2="189.51" gradientUnits="userSpaceOnUse"><stop stop-color="#91739F" stop-opacity=".46"/><stop offset="1" stop-color="#32054F" stop-opacity=".54"/></linearGradient><linearGradient id="paint4_linear_306_52" x1="163.238" x2="73.773" y1="209.304" y2="135.173" gradientUnits="userSpaceOnUse"><stop stop-color="#463D49" stop-opacity=".331"/><stop offset="1" stop-color="#340A50" stop-opacity=".821"/></linearGradient><linearGradient id="paint5_linear_306_52" x1="144.85" x2="81.751" y1="95.891" y2="191.882" gradientUnits="userSpaceOnUse"><stop stop-color="#715383" stop-opacity=".145"/><stop offset="1" stop-color="#F4F4F4" stop-opacity=".234"/></linearGradient><linearGradient id="paint6_linear_306_52" x1="150.884" x2="106.199" y1="125.17" y2="122.442" gradientUnits="userSpaceOnUse"><stop stop-color="#A5A1A8" stop-opacity=".356"/><stop offset="1" stop-color="#370C50" stop-opacity=".582"/></linearGradient></defs></svg>
